X:1806
T:Vals Akabat, andrastämma första reprisen
R:Vals
C: Anton Teljebäck
Z:Anton Teljebäck
M:3/4
L:1/8
K:A
|ee |e2 e(e e)e | ed c2 ee | e2 e(e e)e | ed c2 ee |e2 e(e e)e | ed c2 ee | e2 e(f f)f | ^g2 g(a a)a |
|e2 e(e e)e | ed c2 ee | e2 e(e e)e | ed c2 ee |e2 e(e e)e | ed c2 ee | e2 e(f f)g | a2 a2 
(:musicend:)




(:music:)
